!!!SOCIAL_FUNCTION:	songs of the drum-presentation ceremony
!!!PDT:	1913
!!!OTL: No_56_Song_of_the_Speaker.krn
!!!REG: Great_Lakes
!!!LANG: Non-Tone
!!!LING_GROUP: Algonquin
**kern	**kern
*staff2	*staff1
*clefF4	*clefF4
*k[f#c#]	*k[f#c#]
*M3/4	*M3/4
4r	4d\
=1	=1
8GG^/L	2f#\
8GG/J	.
8GG^/L	.
8GG/J	.
8GG^/L	4e\
8GG/J	.
=2	=2
2.r	4e\
.	4e\
.	4e\
=3	=3
2.r	2e\
.	4d\
=4	=4
2.r	[2.d\
=5	=5
2.r	2d\]
.	4d\
=6	=6
2.r	2f#\
.	4e\
=7	=7
2.r	4e\
.	4e\
.	4e\
=8	=8
2.r	2e\
.	4d\
=9	=9
2.r	[2.d\
=10	=10
2.r	2d\]
.	4d\
=11||	=11||
*M2/4	*M2/4
2r	2e\
=12||	=12||
*M3/4	*M3/4
2.r	4e\
.	4d\
.	4c#\
=13	=13
2.r	4d\
.	2d\
=14	=14
*k[b-]	*k[b-]
2.r	4d\
.	4A\
.	4G\
=15	=15
2.r	4d\
.	2G\
=16	=16
2.r	2.F\
=17	=17
2.r	4F\
.	2F\
=18	=18
2.r	2G\
.	4F\
=19	=19
2.r	4F\
.	2D\
=20	=20
2.r	2.D\
=21	=21
2.r	2F\
.	4D\
=22||	=22||
*M2/4	*M2/4
2r	2F\
=23||	=23||
*M3/4	*M3/4
2.r	[2D\
.	8D\L]
.	8D\J
=24	=24
2.r	[2.D\
=25	=25
2.r	2D\]
.	4r
==	==
*-	*-
